packages/gestalt-icons-android/vr-theme/ic_vr_orientation-portrait_gestalt.svg

<svg width="24" height="24" viewBox="0 0 24 24" fill="none" xmlns="http://www.w3.org/2000/svg">
<path fill-rule="evenodd" clip-rule="evenodd" d="M3 1C1.89543 1 1 1.89543 1 3V21C1 22.1046 1.89543 23 3 23H21C22.1046 23 23 22.1046 23 21V15C23 13.8954 22.1046 13 21 13L11 13V3C11 1.89543 10.1046 1 9 1H3ZM11 21V15L21 15V21H11Z" fill="black"/>
<path d="M15.2929 7.70711L16.7071 6.29289L18 7.58579V6C18 4.89543 17.1046 4 16 4H13V2H16C18.2091 2 20 3.79086 20 6V7.58579L21.2929 6.29289L22.7071 7.70711L19 11.4142L15.2929 7.70711Z" fill="black"/>
</svg>

<svg xmlns="http://www.w3.org/2000/svg" width="24" height="24"><path d="M3 1a2 2 0 0 0-2 2v18c0 1.1.9 2 2 2h18a2 2 0 0 0 2-2v-6a2 2 0 0 0-2-2H11V3a2 2 0 0 0-2-2zm8 20v-6h10v6zm8-9.59 3.7-3.7-1.4-1.42L20 7.6V6a4 4 0 0 0-4-4h-3v2h3a2 2 0 0 1 2 2v1.59l-1.3-1.3-1.4 1.42z"/></svg>
